img/1.svg

<svg width="99" height="210" viewBox="0 0 99 210" fill="none" xmlns="http://www.w3.org/2000/svg">
<path d="M95.1989 3.36363H98.1989V0.363632H95.1989V3.36363ZM46.7756 3.36363V0.363632H43.8131L43.7758 3.3259L46.7756 3.36363ZM3.62216 38.0653V35.0653H0.62216V38.0653H3.62216ZM3.62216 76.8438H0.62216V79.8438H3.62216V76.8438ZM44.6875 61.7301V58.7301H43.1309L42.2347 60.0028L44.6875 61.7301ZM46.5767 61.7301H49.5767V58.7301H46.5767V61.7301ZM46.5767 207H43.5767V210H46.5767V207ZM95.1989 207V210H98.1989V207H95.1989ZM95.1989 0.363632H46.7756V6.36363H95.1989V0.363632ZM43.7758 3.3259C43.6902 10.1351 39.5961 18.0611 32.3286 24.3791C25.1229 30.6434 15.0706 35.0653 3.62216 35.0653V41.0653C16.634 41.0653 28.059 36.0412 36.2651 28.9072C44.4096 21.8267 49.6621 12.4019 49.7753 3.40136L43.7758 3.3259ZM0.62216 38.0653V76.8438H6.62216V38.0653H0.62216ZM3.62216 79.8438C26.487 79.8438 41.4172 71.5843 47.1403 63.4574L42.2347 60.0028C38.0146 65.9952 25.3027 73.8438 3.62216 73.8438V79.8438ZM44.6875 64.7301H46.5767V58.7301H44.6875V64.7301ZM43.5767 61.7301V207H49.5767V61.7301H43.5767ZM46.5767 210H95.1989V204H46.5767V210ZM98.1989 207V3.36363H92.1989V207H98.1989Z" fill="url(#paint0_linear)"/>
<defs>
<linearGradient id="paint0_linear" x1="88" y1="-62" x2="88" y2="334" gradientUnits="userSpaceOnUse">
<stop stop-color="#00D6EF"/>
<stop offset="0.328125" stop-color="#810BFF"/>
<stop offset="0.677083" stop-color="#FF0B9D"/>
<stop offset="1" stop-color="#A60636"/>
</linearGradient>
</defs>
</svg>

<svg width="99" height="210" viewBox="0 0 99 210" fill="none" xmlns="http://www.w3.org/2000/svg">
    <path d="M95.199 3.364h3v-3h-3v3zm-48.423 0v-3h-2.963l-.037 2.962 3 .038zM3.622 38.065v-3h-3v3h3zm0 38.779h-3v3h3v-3zM44.688 61.73v-3H43.13l-.896 1.273 2.453 1.727zm1.889 0h3v-3h-3v3zm0 145.27h-3v3h3v-3zm48.622 0v3h3v-3h-3zm0-206.636H46.776v6h48.423v-6zM43.776 3.326c-.086 6.81-4.18 14.735-11.447 21.053-7.206 6.264-17.258 10.686-28.707 10.686v6a49.848 49.848 0 0 0 32.643-12.158c8.145-7.08 13.397-16.505 13.51-25.506l-6-.075zM.622 38.066v38.778h6V38.065h-6zm3 41.778c22.865 0 37.795-8.26 43.518-16.387l-4.905-3.454c-4.22 5.992-16.932 13.84-38.613 13.84v6zM44.688 64.73h1.889v-6h-1.89v6zm-1.111-3V207h6V61.73h-6zm3 148.27h48.622v-6H46.577v6zm51.622-3V3.364h-6V207h6z" fill="url(#a)"/>
    <defs>
        <linearGradient id="a" x1="88" y1="-62" x2="88" y2="334" gradientUnits="userSpaceOnUse">
            <stop stop-color="#00D6EF"/>
            <stop offset=".328" stop-color="#810BFF"/>
            <stop offset=".677" stop-color="#FF0B9D"/>
            <stop offset="1" stop-color="#A60636"/>
        </linearGradient>
    </defs>
</svg>
